alpha-d-circle.svg

<svg fill="currentColor" viewBox="0 0 24 24"><path d="M12 2a10 10 0 0 1 10 10 10 10 0 0 1-10 10A10 10 0 0 1 2 12 10 10 0 0 1 12 2M9 7v10h4a2 2 0 0 0 2-2V9a2 2 0 0 0-2-2zm2 2h2v6h-2z"/></svg>

<svg  viewBox="0 0 24 24" fill="currentColor"><path  d="M12,2A10,10 0 0,1 22,12A10,10 0 0,1 12,22A10,10 0 0,1 2,12A10,10 0 0,1 12,2M9,7V17H13A2,2 0 0,0 15,15V9A2,2 0 0,0 13,7H9M11,9H13V15H11V9Z"/></svg>
